X:1
T:BWV 0787
T:Sinfonia 1    (A = 415 Hz)
T:Johann Sebastian Bach
%%score { ( 1 3 ) | 2 }
L:1/8
Q:1/4=120
M:4/4
K:C
V:1 treble 
V:3 treble 
V:2 bass 
V:1
"^Allegretto" z/ G/A/B/ c/d/e/f/ g/f/g/a/ f/a/g/f/ | e4- e2 ^f2 | gf e2 de/f/ d2- | %3
 dg/f/ e2- ee d2- | d3 c- cc/4B/4A/ B/c/d/B/ | G2- G/c/d/e/ A/B/A/B/ c/4B/4c/4B/4c/4B/4A/4B/4 | %6
 cG c/4B/4c3/2- cc/4B/4A/ d2- | d/B/c/d/ e2- ea-ag- | g^f/e/ f/g/a/f/ d2- d/g/a/b/ | %9
 e/^f/e/f/ g/4f/4g/4f/4g/4f/4e/4f/4 g/a/g/f/ e/d/c/B/ | A/B/A/G/ A/^F/G/A/ B2- B/G/A/_B/ | %11
 A/E/F/G/ A/B/^c/d/ e/d/e/f/ e/_b/a/g/ | f/g/f/e/ d/^c/d/e/ f2 ^f2 | g2 f2- ff/4e/4d/ e2- | %14
 ed- dc- cc/4B/4A/ Bd | g2- g/a/f/g/ a2 b2 | c'2 _b2 a2 f2- | f2 g4- g/c/f/e/ | f2 e2 d4- | %19
 d/f/e/d/ c4 =B2 | !fermata![Ec]8 |] %21
V:2
 C,2 z C B,G,A,B, | C2 z B, A,G,A,D, | G,,/G,/A,/B,/ C/D/E/F/ G/F/G/A/ F/A/G/F/ | %3
 E/F/E/D/ C/B,/A,/G,/ F,/G,/F,/E,/ F,/D,/E,/F,/ | %4
 E,/G,,/A,,/B,,/ C,/D,/E,/F,/ G,/F,/G,/A,/ F,/A,/G,/F,/ | E,4 E,2 D,2 | %6
 C,/D,/C,/B,,/ A,,/G,,/^F,,/E,,/ D,,/E,/D,/C,/ B,,/A,,/G,,/F,,/ | %7
 E,,/F,/E,/D,/ C,/B,,/A,,/G,,/ ^F,,/D,,/E,,/F,,/ G,,/A,,/B,,/C,/ | %8
 D,/C,/D,/E,/ C,/E,/D,/C,/ B,,2 B,2- | B,2 A,2 E,D, C,2 | %10
 D,/G,/^F,/E,/ D,/C,/B,,/A,,/ G,,/A,,/G,,/F,,/ G,,/E,,/F,,/G,,/ | ^C,,D,^C,B,, A,,G,F,E, | %12
 D, z z2 z/ G/F/E/ D/C/_B,/A,/ | G,/C,/D,/E,/ F,/G,/A,/_B,/ C/B,/C/D/ B,/D/C/B,/ | %14
 A,/G,/A,/B,/[K:treble] C/D/E/F/ G/F/G/A/ F/A/G/F/ | E2 z2 z/ c/B/A/ G/F/E/D/ | %16
[K:bass] C/D/C/_B,/ C/A,/B,/C/ F,/G,/F,/E,/ D,/C,/B,,/A,,/ | %17
 G,,/A,/G,/F,/ E,/D,/C,/B,,/ A,,/B,/A,/G,/ F,/E,/D,/C,/ | %18
 B,,/G,,/A,,/B,,/ C,/D,/E,/F,/ G,/F,/G,/A,/ F,/A,/G,/F,/ | E,F,/G,/ A,C, D,E,/F,/ G,G,, | %20
 !fermata!C,8 |] %21
V:3
 x8 | z/ C/D/E/ F/G/A/B/ c/B/c/4B/4d/ c/e/e/4d/4c/ | Bd-dc- c2 B2- | B2 z/ d/c/B/ A3 A | %4
 GF E2 D4- | D/F/E/D/[I:staff +1] C/B,/A,/G,/ F,/G,/F,/E,/ F,/D,/E,/F,/ | %6
 E,2[I:staff -1] z E ^F/4E/4F3/2 z/ c/B/A/ | G2- G/G/c/B/ c2 B2 | A4- A/c/B/A/ G/^F/E/D/ | %9
[I:staff +1] C/D/C/B,/ C/A,/B,/C/ B,2- B,/-B,/A,/G,/ | ^F,[I:staff -1] z z2 z/ D/E/=F/ E2- | %11
 E/ z/ z z2 z[I:staff +1] A,B,^C |[I:staff -1] D/D/E/F/ G/A/B/^c/ d/c/d/e/ =c/_e/d/c/ | %13
 _B/A/B/c/ A/c/B/A/ G3 G | F2 E z z4 | z/ F/G/A/ B/c/d/e/ f/e/f/g/ f/a/g/f/ | %16
 ea-ag- g/c/d/e/ z/ e/d/c/ | B/d/e/f/ z/ f/e/d/ c/d/c/_B/ A2- | Ad- dc- c-c/4B/4A/ B/c/d/B/ | %19
 G2 z/ _B/A/G/ F/G/G/4F/4E/ F/D/E/F/ | x8 |] %21

